img/copy-icon.svg

<svg width="23" height="26" viewBox="0 0 23 26" fill="none" xmlns="http://www.w3.org/2000/svg">
<g clip-path="url(#clip0)">
<path d="M8.76987 15.7569C8.76987 15.3751 8.76987 15.0212 8.76987 14.6292C11.8184 14.6292 14.851 14.6292 17.9113 14.6292C17.9113 15.0057 17.9113 15.3596 17.9113 15.7569C14.8691 15.7569 11.8355 15.7569 8.76987 15.7569Z" fill="white"/>
<path d="M17.9144 19.6826C17.9144 20.084 17.9144 20.4399 17.9144 20.834C14.868 20.834 11.846 20.834 8.78043 20.834C8.78043 20.4513 8.78043 20.084 8.78043 19.6826C11.8183 19.6826 14.8424 19.6826 17.9144 19.6826Z" fill="white"/>
<path d="M17.9209 12.0941C17.9209 12.4862 17.9209 12.8257 17.9209 13.2074C14.867 13.2074 11.8323 13.2074 8.76987 13.2074C8.76987 12.8287 8.76987 12.478 8.76987 12.0941C11.8248 12.0941 14.8478 12.0941 17.9209 12.0941Z" fill="white"/>
<path d="M8.76987 18.2805C8.76987 17.9018 8.76987 17.551 8.76987 17.1703C11.8206 17.1703 14.8425 17.1703 17.9017 17.1703C17.9017 17.5314 17.9017 17.8822 17.9017 18.2805C14.8681 18.2805 11.8355 18.2805 8.76987 18.2805Z" fill="white"/>
<path d="M3.15985 23.3988C3.15878 23.0769 3.15772 22.7529 3.15665 22.4248C3.04272 22.4248 2.92772 22.4248 2.81378 22.4248C1.62864 22.4248 1.04193 21.8625 1.04086 20.7245C1.03873 18.8684 1.0398 17.0123 1.0398 15.1562C1.0398 12.6645 1.05258 10.1718 1.03235 7.68012C1.02809 7.21996 1.18142 7.08068 1.64142 7.10441C2.27818 7.13742 2.91813 7.11472 3.55702 7.11163C5.31397 7.10544 6.33193 6.11909 6.33406 4.4229C6.33512 3.30861 6.33406 2.19536 6.33406 1.00782H7.01448C10.1365 1.00782 13.2585 1.00782 16.3806 1.00782C17.4284 1.00782 17.9831 1.31322 18.1844 2.05607C18.5475 2.05711 18.9074 2.05814 19.263 2.05917C19.0373 0.801472 18.079 0.0194085 16.6393 0.0111545C13.3214 -0.00638515 10.0034 0.000837072 6.68545 0.0183768C6.47568 0.0194085 6.20628 0.15044 6.06573 0.306234C4.11818 2.4698 2.18554 4.64472 0.26355 6.82996C0.118735 6.99504 0.0154477 7.25401 0.0154477 7.46964C-0.000524527 11.9227 -0.00691342 16.3757 0.00692918 20.8287C0.0122533 22.4258 1.08346 23.4287 2.72647 23.4297C2.87128 23.4297 3.0161 23.4297 3.15985 23.4297C3.16091 23.4194 3.15985 23.4091 3.15985 23.3988ZM5.26711 2.671C5.26711 3.53973 5.32142 4.25679 5.25114 4.96147C5.18832 5.59393 4.55369 6.07163 3.86475 6.10774C3.40688 6.13147 2.94688 6.11187 2.31332 6.11187C3.33128 4.92639 4.25022 3.85544 5.26711 2.671Z" fill="white"/>
<path d="M22.9989 23.3216C22.9978 24.9786 21.9564 25.9969 20.2517 25.998C15.6389 26.0011 11.025 26.0011 6.41226 25.998C4.76925 25.9969 3.69804 24.9941 3.69272 23.3969C3.67888 18.9439 3.68527 14.4909 3.70017 10.0389C3.70124 9.82328 3.80346 9.56328 3.94827 9.39923C5.87027 7.214 7.8029 5.03907 9.75045 2.87447C9.89101 2.71868 10.1604 2.58765 10.3702 2.58661C13.6881 2.56907 17.0061 2.56185 20.3241 2.57939C21.9767 2.58868 22.9957 3.61836 22.9978 5.21757C22.9999 8.22614 22.9989 11.2347 22.9989 14.2433C22.9999 17.2694 23.001 20.2955 22.9989 23.3216ZM10.0198 6.99011C10.0177 8.6863 8.99975 9.67265 7.24281 9.67884C6.60392 9.6809 5.96397 9.70463 5.32721 9.67161C4.86721 9.64788 4.71388 9.78717 4.71814 10.2473C4.73837 12.739 4.72665 15.2317 4.72559 17.7234C4.72559 19.5795 4.72346 21.4356 4.72665 23.2917C4.72772 24.4297 5.3155 24.992 6.49957 24.992C11.058 24.993 15.6176 24.993 20.1761 24.992C21.3953 24.992 21.9596 24.4431 21.9596 23.2576C21.9607 17.3107 21.9607 11.3637 21.9596 5.41669C21.9596 4.0878 21.4293 3.574 20.0653 3.574C16.9433 3.57296 13.8212 3.574 10.6992 3.574C10.4916 3.574 10.2839 3.574 10.0188 3.574C10.0198 4.76257 10.0209 5.87685 10.0198 6.99011ZM7.55054 8.67598C8.24054 8.63987 8.87411 8.16217 8.93693 7.52971C9.00721 6.824 8.9529 6.10693 8.9529 5.23923C7.93601 6.42368 7.01707 7.49463 5.99804 8.68114C6.63267 8.68114 7.09267 8.69971 7.55054 8.67598Z" fill="white"/>
</g>
<defs>
<clipPath id="clip0">
<rect width="23" height="26" fill="white"/>
</clipPath>
</defs>
</svg>

<svg width="23" height="26" fill="none" xmlns="http://www.w3.org/2000/svg"><g clip-path="url(#clip0)" fill="#fff"><path d="M8.77 15.757v-1.128h9.141v1.128H8.77zM17.914 19.683v1.151H8.78v-1.151h9.134zM17.92 12.094v1.113H8.77v-1.113h9.15zM8.77 18.28v-1.11h9.132v1.11H8.77z"/><path d="M3.16 23.399l-.003-.974h-.343c-1.185 0-1.772-.563-1.773-1.7-.002-1.857-.001-3.713-.001-5.569 0-2.492.013-4.984-.008-7.476-.004-.46.15-.6.61-.576.636.033 1.276.01 1.915.008 1.757-.007 2.775-.993 2.777-2.69V1.009h10.047c1.047 0 1.602.305 1.803 1.048l1.079.003C19.037.801 18.079.02 16.639.011c-3.318-.017-6.636-.01-9.954.007a.95.95 0 00-.62.288A758.39 758.39 0 00.265 6.83a1.052 1.052 0 00-.249.64C0 11.923-.007 16.376.007 20.829c.005 1.597 1.076 2.6 2.72 2.6h.433v-.03zM5.267 2.67c0 .869.054 1.586-.016 2.29-.063.633-.697 1.11-1.386 1.147-.458.023-.918.004-1.552.004L5.267 2.67z"/><path d="M22.999 23.322c-.001 1.657-1.043 2.675-2.747 2.676-4.613.003-9.227.003-13.84 0-1.643-.001-2.714-1.004-2.72-2.601-.013-4.453-.007-8.906.008-13.358.001-.216.103-.476.248-.64A774.738 774.738 0 019.75 2.874a.95.95 0 01.62-.287c3.318-.018 6.636-.025 9.954-.008 1.653.01 2.672 1.04 2.674 2.639.002 3.008 0 6.017 0 9.025.002 3.026.003 6.053 0 9.079zM10.019 6.99C10.019 8.686 9 9.673 7.244 9.68c-.64.002-1.279.026-1.916-.007-.46-.024-.613.115-.609.575.02 2.492.009 4.985.008 7.476 0 1.857-.003 3.713 0 5.569.002 1.138.59 1.7 1.774 1.7h13.676c1.22 0 1.784-.549 1.784-1.734V5.417c0-1.33-.53-1.843-1.895-1.843H10.02c0 1.189.002 2.303 0 3.416zM7.552 8.676c.69-.036 1.323-.514 1.386-1.146.07-.706.016-1.423.016-2.29L5.998 8.68c.635 0 1.095.019 1.553-.005z"/></g><defs><clipPath id="clip0"><path fill="#fff" d="M0 0h23v26H0z"/></clipPath></defs></svg>
